-- flying pad

d1 $ juxBy 0.25 (rev.(striate 8)) $ slow 4 $ n "[[c4,e4,g4] [a4,c5,e5]!2 [g4,b4,d5]*2]" # s "supersquare" 
# sus "1.5" # slow 4 (cutoff (scale 600 1500 sine)) # slow 2.5 (resonance (scale 0.1 0.5 sine)) 
# delay "0.9" # delayfb "0.5" # delayt "0.75"
# room "0.4" # size "0.8"
