-- the world is beautiful

arpg :: Num a => Pattern String -> Pattern a
arpg p = breakUp $ chord p

d1 $ stack [
  slow 2 $ n (chord "major7" + "<c5 g5>") # gain 0.85,
  jux (reV.(fast 2).every 16 (fast 0.66).(|+| delayfb 0.6).(# gain 0.9).(|+| n (irand 3 * "<12 0>"))) 
	$ n (iter 4 $ arpg "major7" + "<c5 c4 c6 g4>")] # s "superpiano"
  # room 0.8 # size 0.7 # delay 0.7 # delayt 0.5 # delayfb 0.45 # orbit 1

