-- scatsuperchip

p "1" $ stack [n (discretise 16 $ choose[0..24]) # s "bd sn <bd dr [~ dr2]> hc" # crush (discretise 4 $ choose[2..8]),
jux (degradeBy 0.7.(+ n (choose[-12,-7,7,12])).(#pan (slow 2 $ discretise 6 $ rand))) $ degrade $ iter 4
$ n (fast 4 $ iter 4 $ breakUp $ "[0,3,7,10]" - 12) # s "superchip" # rel 0.15]
