-- Modulated rhythmic pattern with a tail

d1 $ every 4 (linger "<0.25 0.9625 0.5>")
$ slow 4 $ striate' 32 (1/3) $ s "psr:3 psr:6 psr:5 psr:9"
# resonance (slow 6 (scale 0.1 0.7 sine1))
# cutoff (slow 4 $ (scale 0.05 0.95 sine1 * 8e3))
# pan (slow 4 rand)
